X: 41376
T: Tuttle's
R: reel
M: 4/4
K: Ddorian
|:A,DDE FEFG|AcGc A~d3|D3E FAdc|cAGE EDEC|
A,DDE FEFG|AcGc Adde|efed dcAc|1 cAGE EDEC:|2 cAGE EDDA||
|:d3A A~c3|AddA cAGA|d3A AccA|GEcE EDDA|
d3A A~c3|AddA cAde|efed dcAc|1 cAGE EDDA:|2 cAGE EDEC||

